X:29
T:Hector the Hero
R:air
C:James Scott Skinner (1843-1927), Scotland
Z:id:hn-air-29
M:3/4
L:1/8
K:G
GA | B3 A G2 | e3 d B2 | d6- | d4 GA |
B3 A G2 | e3 d B2 | A6- | A4 GA |
B3 A G2 | e3 d B2 | d4 G2 | e g3 e2 |
d G3 B2 | A4 G2 | G6- | G4 :|
|: Bd | e3 d e2 | g3 f e2 | d6- | d4 Bd |
e3 g (3edB | d G3 B2 | A6- | A4 Bd |
e3 d e2 | g3 f e2 | d4 G2 | e g3 e2 |
d G3 B2 | A4 G2 | G6- | G4 :|



